report_00007_2020-12-11T15:55:29.892Z/largest-contentful-paint/comparison/sorted/5_vs_6.svg

<svg width="640" height="500" xmlns="http://www.w3.org/2000/svg" xmlns:xlink="http://www.w3.org/1999/xlink"><path fill="#fff" d="M0 0h640v500H0z"/><defs><path id="d" stroke-width=".222" stroke="currentColor" d="M-1-1h2v2h-2z"/><path id="b" stroke-width=".222" stroke="currentColor" d="M0-1.33l-1.33 2h2.66z"/><path id="f" stroke-width=".222" stroke="currentColor" d="M0 1.33L1.265.411.782-1.067l-1.564-.009-.483 1.487z"/><use xlink:href="#b" id="c" stroke="currentColor" transform="rotate(180)"/><use xlink:href="#d" id="e" stroke="currentColor" transform="rotate(45)"/><circle id="a" stroke-width=".222" stroke="currentColor" cx="0" cy="0" r="1"/></defs><g fill="none" color="#000" stroke="currentColor"><path stroke="#000" d="M62.2 354h9m543.8 0h-9"/><text transform="translate(53.9 357.9)" stroke="none" fill="#000" font-family="Arial" font-size="12" text-anchor="end"><tspan>6500</tspan></text></g><g fill="none" color="#000" stroke="currentColor"><path stroke="#000" d="M62.2 305h9m543.8 0h-9"/><text transform="translate(53.9 308.9)" stroke="none" fill="#000" font-family="Arial" font-size="12" text-anchor="end"><tspan>7000</tspan></text></g><g fill="none" color="#000" stroke="currentColor"><path stroke="#000" d="M62.2 255.9h9m543.8 0h-9"/><text transform="translate(53.9 259.8)" stroke="none" fill="#000" font-family="Arial" font-size="12" text-anchor="end"><tspan>7500</tspan></text></g><g fill="none" color="#000" stroke="currentColor"><path stroke="#000" d="M62.2 206.9h9m543.8 0h-9"/><text transform="translate(53.9 210.8)" stroke="none" fill="#000" font-family="Arial" font-size="12" text-anchor="end"><tspan>8000</tspan></text></g><g fill="none" color="#000" stroke="currentColor"><path stroke="#000" d="M62.2 157.9h9m543.8 0h-9"/><text transform="translate(53.9 161.8)" stroke="none" fill="#000" font-family="Arial" font-size="12" text-anchor="end"><tspan>8500</tspan></text></g><g fill="none" color="#000" stroke="currentColor"><path stroke="#000" d="M62.2 108.9h9m543.8 0h-9"/><text transform="translate(53.9 112.8)" stroke="none" fill="#000" font-family="Arial" font-size="12" text-anchor="end"><tspan>9000</tspan></text></g><g fill="none" color="#000" stroke="currentColor"><path stroke="#000" d="M62.2 59.9h9m543.8 0h-9"/><text transform="translate(53.9 63.8)" stroke="none" fill="#000" font-family="Arial" font-size="12" text-anchor="end"><tspan>9500</tspan></text></g><g fill="none" color="#000" stroke="currentColor"><path stroke="#000" d="M62.2 392v-9m0-364.9v9"/><text transform="translate(62.2 413.9)" stroke="none" fill="#000" font-family="Arial" font-size="12" text-anchor="middle"><tspan>0</tspan></text></g><g fill="none" color="#000" stroke="currentColor"><path stroke="#000" d="M118 392v-9m0-364.9v9"/><text transform="translate(118 413.9)" stroke="none" fill="#000" font-family="Arial" font-size="12" text-anchor="middle"><tspan>10</tspan></text></g><g fill="none" color="#000" stroke="currentColor"><path stroke="#000" d="M173.9 392v-9m0-364.9v9"/><text transform="translate(173.9 413.9)" stroke="none" fill="#000" font-family="Arial" font-size="12" text-anchor="middle"><tspan>20</tspan></text></g><g fill="none" color="#000" stroke="currentColor"><path stroke="#000" d="M229.7 392v-9m0-364.9v9"/><text transform="translate(229.7 413.9)" stroke="none" fill="#000" font-family="Arial" font-size="12" text-anchor="middle"><tspan>30</tspan></text></g><g fill="none" color="#000" stroke="currentColor"><path stroke="#000" d="M285.6 392v-9m0-364.9v9"/><text transform="translate(285.6 413.9)" stroke="none" fill="#000" font-family="Arial" font-size="12" text-anchor="middle"><tspan>40</tspan></text></g><g fill="none" color="#000" stroke="currentColor"><path stroke="#000" d="M341.4 392v-9m0-364.9v9"/><text transform="translate(341.4 413.9)" stroke="none" fill="#000" font-family="Arial" font-size="12" text-anchor="middle"><tspan>50</tspan></text></g><g fill="none" color="#000" stroke="currentColor"><path stroke="#000" d="M397.2 392v-9m0-364.9v9"/><text transform="translate(397.2 413.9)" stroke="none" fill="#000" font-family="Arial" font-size="12" text-anchor="middle"><tspan>60</tspan></text></g><g fill="none" color="#000" stroke="currentColor"><path stroke="#000" d="M453.1 392v-9m0-364.9v9"/><text transform="translate(453.1 413.9)" stroke="none" fill="#000" font-family="Arial" font-size="12" text-anchor="middle"><tspan>70</tspan></text></g><g fill="none" color="#000" stroke="currentColor"><path stroke="#000" d="M508.9 392v-9m0-364.9v9"/><text transform="translate(508.9 413.9)" stroke="none" fill="#000" font-family="Arial" font-size="12" text-anchor="middle"><tspan>80</tspan></text></g><g fill="none" color="#000" stroke="currentColor"><path stroke="#000" d="M564.7 392v-9m0-364.9v9"/><text transform="translate(564.7 413.9)" stroke="none" fill="#000" font-family="Arial" font-size="12" text-anchor="middle"><tspan>90</tspan></text></g><path stroke="#000" d="M62.2 18.1V392H615V18.1H62.2z" fill="none" color="#000"/><text transform="translate(437.8 431.9)" stroke="none" fill="#000" font-family="Arial" font-size="12" text-anchor="end" color="#000"><tspan>pages+cached+noexternal</tspan></text><path stroke="#9400D3" d="M446.1 428h42.2M62.2 117.1h11.2l5.6-.3 5.5-.4 5.6-.2 5.6-.1h5.6l5.6-.2H118l5.6-.1 5.6-.1h11.2l5.6-.1 5.5-.1h11.2l5.6-.1h11.2l5.5-.1h5.6l5.6-.3H213l5.5-.8 5.6-4.7 5.6-.1 5.6-.1 5.6-.1 5.6-.1 5.6-.2h5.5l5.6-.1 5.6-.1h5.6l5.6-.2 5.6-.1h5.5l5.6-.1h5.6l5.6-.1 5.6-.2h11.1l5.6-.1h11.2l5.6-.1 5.6-.1h5.5l5.6-.1 5.6-.1 5.6-.3 5.6-71.8 5.6-.1 5.5-.1 5.6-.1 5.6-.1 5.6-.2h5.6l5.6-.1 5.5-.1H441.9l5.6-.1 5.6-.1 5.6-.1 5.5-.1h5.6l5.6-.1 5.6-.1 5.6-.1 5.6-.2 5.5-.1 5.6-.1 5.6-.1h5.6l5.6-.2 5.6-4.3 5.5-.9 5.6-.2h5.6l5.6-.3 5.6-.1 5.6-.3 5.5-.2h5.6l5.6-.2h5.6l5.6-.1 5.6-.3h5.5l5.6-.7 5.6-.2 5.6-.1" fill="none" color="#000"/><text transform="translate(437.8 449.9)" stroke="none" fill="#000" font-family="Arial" font-size="12" text-anchor="end" color="#000"><tspan>pages+cached+noexternal+nofonts</tspan></text><path stroke="#009E73" d="M446.1 446h42.2M62.2 384.8l5.6-.9 5.6-6.3H79l5.5-.2h11.2l5.6-.1h5.6l5.6-.1h11.1l5.6-.1 5.6-.3 5.6-.5 5.6-5.2 5.5-.1 5.6-.1h11.2l5.6-.1 5.6-.2h5.5l5.6-.1h5.6l5.6-.1h5.6l5.6-.1h11.1l5.6-.1 5.6-.1h5.6l5.6-.1h27.9l5.6-.1h33.5l5.6-.1H347l5.6-.1h33.5l5.5-.1H408.4l5.6-.1h11.1l5.6-.1H447.5l5.6-.1 5.6-.1 5.5-.4 5.6-71.6 5.6-.8 5.6-.2h16.7l5.6-.1 5.6-.3h5.6l5.6-.1h5.6l5.5-6 5.6-.3 5.6-.2 5.6-.1 5.6-.1h11.1l5.6-.2h5.6l5.6-.1 5.6-.1h11.1l5.6-.1 5.6-.2 5.6-.1" fill="none" color="#000"/><text transform="translate(437.8 467.9)" stroke="none" fill="#000" font-family="Arial" font-size="12" text-anchor="end" color="#000"><tspan>score p10=2500</tspan></text><path stroke="#56B4E9" d="M446.1 464h42.2" fill="none" color="#000"/><g><text transform="translate(437.8 485.9)" stroke="none" fill="#000" font-family="Arial" font-size="12" text-anchor="end" color="#000"><tspan>score median=4000</tspan></text><path stroke="#E69F00" d="M446.1 482h42.2" fill="none" color="#000"/></g><g fill="none" color="#000" stroke="currentColor"><path stroke="#000" d="M62.2 18.1V392H615V18.1H62.2z"/></g></svg>

<?xml version="1.0" encoding="utf-8"  standalone="no"?>
<svg 
 width="640" height="500"
 viewBox="0 0 640 500"
 xmlns="http://www.w3.org/2000/svg"
 xmlns:xlink="http://www.w3.org/1999/xlink"
>

<title>Gnuplot</title>
<desc>Produced by GNUPLOT 5.4 patchlevel 0 </desc>

<g id="gnuplot_canvas">

<rect x="0" y="0" width="640" height="500" fill="#ffffff"/>
<defs>

	<circle id='gpDot' r='0.5' stroke-width='0.5' stroke='currentColor'/>
	<path id='gpPt0' stroke-width='0.222' stroke='currentColor' d='M-1,0 h2 M0,-1 v2'/>
	<path id='gpPt1' stroke-width='0.222' stroke='currentColor' d='M-1,-1 L1,1 M1,-1 L-1,1'/>
	<path id='gpPt2' stroke-width='0.222' stroke='currentColor' d='M-1,0 L1,0 M0,-1 L0,1 M-1,-1 L1,1 M-1,1 L1,-1'/>
	<rect id='gpPt3' stroke-width='0.222' stroke='currentColor' x='-1' y='-1' width='2' height='2'/>
	<rect id='gpPt4' stroke-width='0.222' stroke='currentColor' fill='currentColor' x='-1' y='-1' width='2' height='2'/>
	<circle id='gpPt5' stroke-width='0.222' stroke='currentColor' cx='0' cy='0' r='1'/>
	<use xlink:href='#gpPt5' id='gpPt6' fill='currentColor' stroke='none'/>
	<path id='gpPt7' stroke-width='0.222' stroke='currentColor' d='M0,-1.33 L-1.33,0.67 L1.33,0.67 z'/>
	<use xlink:href='#gpPt7' id='gpPt8' fill='currentColor' stroke='none'/>
	<use xlink:href='#gpPt7' id='gpPt9' stroke='currentColor' transform='rotate(180)'/>
	<use xlink:href='#gpPt9' id='gpPt10' fill='currentColor' stroke='none'/>
	<use xlink:href='#gpPt3' id='gpPt11' stroke='currentColor' transform='rotate(45)'/>
	<use xlink:href='#gpPt11' id='gpPt12' fill='currentColor' stroke='none'/>
	<path id='gpPt13' stroke-width='0.222' stroke='currentColor' d='M0,1.330 L1.265,0.411 L0.782,-1.067 L-0.782,-1.076 L-1.265,0.411 z'/>
	<use xlink:href='#gpPt13' id='gpPt14' fill='currentColor' stroke='none'/>
	<filter id='textbox' filterUnits='objectBoundingBox' x='0' y='0' height='1' width='1'>
	  <feFlood flood-color='#FFFFFF' flood-opacity='1' result='bgnd'/>
	  <feComposite in='SourceGraphic' in2='bgnd' operator='atop'/>
	</filter>
	<filter id='greybox' filterUnits='objectBoundingBox' x='0' y='0' height='1' width='1'>
	  <feFlood flood-color='lightgrey' flood-opacity='1' result='grey'/>
	  <feComposite in='SourceGraphic' in2='grey' operator='atop'/>
	</filter>
</defs>
<g fill="none" color="#FFFFFF" stroke="black" stroke-width="1.00" stroke-linecap="butt" stroke-linejoin="miter">
</g>
<g fill="none" color="black" stroke="currentColor" stroke-width="1.00" stroke-linecap="butt" stroke-linejoin="miter">
	<path stroke='black'  d='M62.2,354.0 L71.2,354.0 M615.0,354.0 L606.0,354.0  '/>	<g transform="translate(53.9,357.9)" stroke="none" fill="black" font-family="Arial" font-size="12.00"  text-anchor="end">
		<text><tspan font-family="Arial" > 6500</tspan></text>
	</g>
</g>
<g fill="none" color="black" stroke="currentColor" stroke-width="1.00" stroke-linecap="butt" stroke-linejoin="miter">
	<path stroke='black'  d='M62.2,305.0 L71.2,305.0 M615.0,305.0 L606.0,305.0  '/>	<g transform="translate(53.9,308.9)" stroke="none" fill="black" font-family="Arial" font-size="12.00"  text-anchor="end">
		<text><tspan font-family="Arial" > 7000</tspan></text>
	</g>
</g>
<g fill="none" color="black" stroke="currentColor" stroke-width="1.00" stroke-linecap="butt" stroke-linejoin="miter">
	<path stroke='black'  d='M62.2,255.9 L71.2,255.9 M615.0,255.9 L606.0,255.9  '/>	<g transform="translate(53.9,259.8)" stroke="none" fill="black" font-family="Arial" font-size="12.00"  text-anchor="end">
		<text><tspan font-family="Arial" > 7500</tspan></text>
	</g>
</g>
<g fill="none" color="black" stroke="currentColor" stroke-width="1.00" stroke-linecap="butt" stroke-linejoin="miter">
	<path stroke='black'  d='M62.2,206.9 L71.2,206.9 M615.0,206.9 L606.0,206.9  '/>	<g transform="translate(53.9,210.8)" stroke="none" fill="black" font-family="Arial" font-size="12.00"  text-anchor="end">
		<text><tspan font-family="Arial" > 8000</tspan></text>
	</g>
</g>
<g fill="none" color="black" stroke="currentColor" stroke-width="1.00" stroke-linecap="butt" stroke-linejoin="miter">
	<path stroke='black'  d='M62.2,157.9 L71.2,157.9 M615.0,157.9 L606.0,157.9  '/>	<g transform="translate(53.9,161.8)" stroke="none" fill="black" font-family="Arial" font-size="12.00"  text-anchor="end">
		<text><tspan font-family="Arial" > 8500</tspan></text>
	</g>
</g>
<g fill="none" color="black" stroke="currentColor" stroke-width="1.00" stroke-linecap="butt" stroke-linejoin="miter">
	<path stroke='black'  d='M62.2,108.9 L71.2,108.9 M615.0,108.9 L606.0,108.9  '/>	<g transform="translate(53.9,112.8)" stroke="none" fill="black" font-family="Arial" font-size="12.00"  text-anchor="end">
		<text><tspan font-family="Arial" > 9000</tspan></text>
	</g>
</g>
<g fill="none" color="black" stroke="currentColor" stroke-width="1.00" stroke-linecap="butt" stroke-linejoin="miter">
	<path stroke='black'  d='M62.2,59.9 L71.2,59.9 M615.0,59.9 L606.0,59.9  '/>	<g transform="translate(53.9,63.8)" stroke="none" fill="black" font-family="Arial" font-size="12.00"  text-anchor="end">
		<text><tspan font-family="Arial" > 9500</tspan></text>
	</g>
</g>
<g fill="none" color="black" stroke="currentColor" stroke-width="1.00" stroke-linecap="butt" stroke-linejoin="miter">
	<path stroke='black'  d='M62.2,392.0 L62.2,383.0 M62.2,18.1 L62.2,27.1  '/>	<g transform="translate(62.2,413.9)" stroke="none" fill="black" font-family="Arial" font-size="12.00"  text-anchor="middle">
		<text><tspan font-family="Arial" > 0</tspan></text>
	</g>
</g>
<g fill="none" color="black" stroke="currentColor" stroke-width="1.00" stroke-linecap="butt" stroke-linejoin="miter">
	<path stroke='black'  d='M118.0,392.0 L118.0,383.0 M118.0,18.1 L118.0,27.1  '/>	<g transform="translate(118.0,413.9)" stroke="none" fill="black" font-family="Arial" font-size="12.00"  text-anchor="middle">
		<text><tspan font-family="Arial" > 10</tspan></text>
	</g>
</g>
<g fill="none" color="black" stroke="currentColor" stroke-width="1.00" stroke-linecap="butt" stroke-linejoin="miter">
	<path stroke='black'  d='M173.9,392.0 L173.9,383.0 M173.9,18.1 L173.9,27.1  '/>	<g transform="translate(173.9,413.9)" stroke="none" fill="black" font-family="Arial" font-size="12.00"  text-anchor="middle">
		<text><tspan font-family="Arial" > 20</tspan></text>
	</g>
</g>
<g fill="none" color="black" stroke="currentColor" stroke-width="1.00" stroke-linecap="butt" stroke-linejoin="miter">
	<path stroke='black'  d='M229.7,392.0 L229.7,383.0 M229.7,18.1 L229.7,27.1  '/>	<g transform="translate(229.7,413.9)" stroke="none" fill="black" font-family="Arial" font-size="12.00"  text-anchor="middle">
		<text><tspan font-family="Arial" > 30</tspan></text>
	</g>
</g>
<g fill="none" color="black" stroke="currentColor" stroke-width="1.00" stroke-linecap="butt" stroke-linejoin="miter">
	<path stroke='black'  d='M285.6,392.0 L285.6,383.0 M285.6,18.1 L285.6,27.1  '/>	<g transform="translate(285.6,413.9)" stroke="none" fill="black" font-family="Arial" font-size="12.00"  text-anchor="middle">
		<text><tspan font-family="Arial" > 40</tspan></text>
	</g>
</g>
<g fill="none" color="black" stroke="currentColor" stroke-width="1.00" stroke-linecap="butt" stroke-linejoin="miter">
	<path stroke='black'  d='M341.4,392.0 L341.4,383.0 M341.4,18.1 L341.4,27.1  '/>	<g transform="translate(341.4,413.9)" stroke="none" fill="black" font-family="Arial" font-size="12.00"  text-anchor="middle">
		<text><tspan font-family="Arial" > 50</tspan></text>
	</g>
</g>
<g fill="none" color="black" stroke="currentColor" stroke-width="1.00" stroke-linecap="butt" stroke-linejoin="miter">
	<path stroke='black'  d='M397.2,392.0 L397.2,383.0 M397.2,18.1 L397.2,27.1  '/>	<g transform="translate(397.2,413.9)" stroke="none" fill="black" font-family="Arial" font-size="12.00"  text-anchor="middle">
		<text><tspan font-family="Arial" > 60</tspan></text>
	</g>
</g>
<g fill="none" color="black" stroke="currentColor" stroke-width="1.00" stroke-linecap="butt" stroke-linejoin="miter">
	<path stroke='black'  d='M453.1,392.0 L453.1,383.0 M453.1,18.1 L453.1,27.1  '/>	<g transform="translate(453.1,413.9)" stroke="none" fill="black" font-family="Arial" font-size="12.00"  text-anchor="middle">
		<text><tspan font-family="Arial" > 70</tspan></text>
	</g>
</g>
<g fill="none" color="black" stroke="currentColor" stroke-width="1.00" stroke-linecap="butt" stroke-linejoin="miter">
	<path stroke='black'  d='M508.9,392.0 L508.9,383.0 M508.9,18.1 L508.9,27.1  '/>	<g transform="translate(508.9,413.9)" stroke="none" fill="black" font-family="Arial" font-size="12.00"  text-anchor="middle">
		<text><tspan font-family="Arial" > 80</tspan></text>
	</g>
</g>
<g fill="none" color="black" stroke="currentColor" stroke-width="1.00" stroke-linecap="butt" stroke-linejoin="miter">
	<path stroke='black'  d='M564.7,392.0 L564.7,383.0 M564.7,18.1 L564.7,27.1  '/>	<g transform="translate(564.7,413.9)" stroke="none" fill="black" font-family="Arial" font-size="12.00"  text-anchor="middle">
		<text><tspan font-family="Arial" > 90</tspan></text>
	</g>
</g>
<g fill="none" color="black" stroke="currentColor" stroke-width="1.00" stroke-linecap="butt" stroke-linejoin="miter">
</g>
<g fill="none" color="black" stroke="currentColor" stroke-width="1.00" stroke-linecap="butt" stroke-linejoin="miter">
	<path stroke='black'  d='M62.2,18.1 L62.2,392.0 L615.0,392.0 L615.0,18.1 L62.2,18.1 Z  '/></g>
<g fill="none" color="black" stroke="currentColor" stroke-width="1.00" stroke-linecap="butt" stroke-linejoin="miter">
</g>
	<g id="gnuplot_plot_1" ><title>pages+cached+noexternal</title>
<g fill="none" color="black" stroke="currentColor" stroke-width="1.00" stroke-linecap="butt" stroke-linejoin="miter">
	<g transform="translate(437.8,431.9)" stroke="none" fill="black" font-family="Arial" font-size="12.00"  text-anchor="end">
		<text><tspan font-family="Arial" >pages+cached+noexternal</tspan></text>
	</g>
</g>
<g fill="none" color="black" stroke="currentColor" stroke-width="1.00" stroke-linecap="butt" stroke-linejoin="miter">
	<path stroke='rgb(148,   0, 211)'  d='M446.1,428.0 L488.3,428.0 M62.2,117.1 L67.8,117.1 L73.4,117.1 L79.0,116.8 L84.5,116.4 L90.1,116.2
		L95.7,116.1 L101.3,116.1 L106.9,115.9 L112.5,115.9 L118.0,115.9 L123.6,115.8 L129.2,115.7 L134.8,115.7
		L140.4,115.7 L146.0,115.6 L151.5,115.5 L157.1,115.5 L162.7,115.5 L168.3,115.4 L173.9,115.4 L179.5,115.4
		L185.0,115.3 L190.6,115.3 L196.2,115.0 L201.8,115.0 L207.4,115.0 L213.0,115.0 L218.5,114.2 L224.1,109.5
		L229.7,109.4 L235.3,109.3 L240.9,109.2 L246.5,109.1 L252.1,108.9 L257.6,108.9 L263.2,108.8 L268.8,108.7
		L274.4,108.7 L280.0,108.5 L285.6,108.4 L291.1,108.4 L296.7,108.3 L302.3,108.3 L307.9,108.2 L313.5,108.0
		L319.1,108.0 L324.6,108.0 L330.2,107.9 L335.8,107.9 L341.4,107.9 L347.0,107.8 L352.6,107.7 L358.1,107.7
		L363.7,107.6 L369.3,107.5 L374.9,107.2 L380.5,35.4 L386.1,35.3 L391.6,35.2 L397.2,35.1 L402.8,35.0
		L408.4,34.8 L414.0,34.8 L419.6,34.7 L425.1,34.6 L430.7,34.6 L436.3,34.6 L441.9,34.6 L447.5,34.5
		L453.1,34.4 L458.7,34.3 L464.2,34.2 L469.8,34.2 L475.4,34.1 L481.0,34.0 L486.6,33.9 L492.2,33.7
		L497.7,33.6 L503.3,33.5 L508.9,33.4 L514.5,33.4 L520.1,33.2 L525.7,28.9 L531.2,28.0 L536.8,27.8
		L542.4,27.8 L548.0,27.5 L553.6,27.4 L559.2,27.1 L564.7,26.9 L570.3,26.9 L575.9,26.7 L581.5,26.7
		L587.1,26.6 L592.7,26.3 L598.2,26.3 L603.8,25.6 L609.4,25.4 L615.0,25.3  '/></g>
	</g>
	<g id="gnuplot_plot_2" ><title>pages+cached+noexternal+nofonts</title>
<g fill="none" color="black" stroke="currentColor" stroke-width="1.00" stroke-linecap="butt" stroke-linejoin="miter">
	<g transform="translate(437.8,449.9)" stroke="none" fill="black" font-family="Arial" font-size="12.00"  text-anchor="end">
		<text><tspan font-family="Arial" >pages+cached+noexternal+nofonts</tspan></text>
	</g>
</g>
<g fill="none" color="black" stroke="currentColor" stroke-width="1.00" stroke-linecap="butt" stroke-linejoin="miter">
	<path stroke='rgb(  0, 158, 115)'  d='M446.1,446.0 L488.3,446.0 M62.2,384.8 L67.8,383.9 L73.4,377.6 L79.0,377.6 L84.5,377.4 L90.1,377.4
		L95.7,377.4 L101.3,377.3 L106.9,377.3 L112.5,377.2 L118.0,377.2 L123.6,377.2 L129.2,377.1 L134.8,376.8
		L140.4,376.3 L146.0,371.1 L151.5,371.0 L157.1,370.9 L162.7,370.9 L168.3,370.9 L173.9,370.8 L179.5,370.6
		L185.0,370.6 L190.6,370.5 L196.2,370.5 L201.8,370.4 L207.4,370.4 L213.0,370.3 L218.5,370.3 L224.1,370.3
		L229.7,370.2 L235.3,370.1 L240.9,370.1 L246.5,370.0 L252.1,370.0 L257.6,370.0 L263.2,370.0 L268.8,370.0
		L274.4,370.0 L280.0,369.9 L285.6,369.9 L291.1,369.9 L296.7,369.9 L302.3,369.9 L307.9,369.9 L313.5,369.9
		L319.1,369.8 L324.6,369.8 L330.2,369.8 L335.8,369.8 L341.4,369.8 L347.0,369.8 L352.6,369.7 L358.1,369.7
		L363.7,369.7 L369.3,369.7 L374.9,369.7 L380.5,369.7 L386.1,369.7 L391.6,369.6 L397.2,369.6 L402.8,369.6
		L408.4,369.6 L414.0,369.5 L419.6,369.5 L425.1,369.5 L430.7,369.4 L436.3,369.4 L441.9,369.4 L447.5,369.4
		L453.1,369.3 L458.7,369.2 L464.2,368.8 L469.8,297.2 L475.4,296.4 L481.0,296.2 L486.6,296.2 L492.2,296.2
		L497.7,296.2 L503.3,296.1 L508.9,295.8 L514.5,295.8 L520.1,295.7 L525.7,295.7 L531.2,289.7 L536.8,289.4
		L542.4,289.2 L548.0,289.1 L553.6,289.0 L559.2,289.0 L564.7,289.0 L570.3,288.8 L575.9,288.8 L581.5,288.7
		L587.1,288.6 L592.7,288.6 L598.2,288.6 L603.8,288.5 L609.4,288.3 L615.0,288.2  '/></g>
	</g>
	<g id="gnuplot_plot_3" ><title>score p10=2500</title>
<g fill="none" color="black" stroke="currentColor" stroke-width="1.00" stroke-linecap="butt" stroke-linejoin="miter">
	<g transform="translate(437.8,467.9)" stroke="none" fill="black" font-family="Arial" font-size="12.00"  text-anchor="end">
		<text><tspan font-family="Arial" >score p10=2500</tspan></text>
	</g>
</g>
<g fill="none" color="black" stroke="currentColor" stroke-width="1.00" stroke-linecap="butt" stroke-linejoin="miter">
	<path stroke='rgb( 86, 180, 233)'  d='M446.1,464.0 L488.3,464.0  '/></g>
	</g>
	<g id="gnuplot_plot_4" ><title>score median=4000</title>
<g fill="none" color="black" stroke="currentColor" stroke-width="1.00" stroke-linecap="butt" stroke-linejoin="miter">
	<g transform="translate(437.8,485.9)" stroke="none" fill="black" font-family="Arial" font-size="12.00"  text-anchor="end">
		<text><tspan font-family="Arial" >score median=4000</tspan></text>
	</g>
</g>
<g fill="none" color="black" stroke="currentColor" stroke-width="1.00" stroke-linecap="butt" stroke-linejoin="miter">
	<path stroke='rgb(230, 159,   0)'  d='M446.1,482.0 L488.3,482.0  '/></g>
	</g>
<g fill="none" color="#FFFFFF" stroke="rgb(230, 159,   0)" stroke-width="2.00" stroke-linecap="butt" stroke-linejoin="miter">
</g>
<g fill="none" color="black" stroke="currentColor" stroke-width="2.00" stroke-linecap="butt" stroke-linejoin="miter">
</g>
<g fill="none" color="black" stroke="black" stroke-width="1.00" stroke-linecap="butt" stroke-linejoin="miter">
</g>
<g fill="none" color="black" stroke="currentColor" stroke-width="1.00" stroke-linecap="butt" stroke-linejoin="miter">
	<path stroke='black'  d='M62.2,18.1 L62.2,392.0 L615.0,392.0 L615.0,18.1 L62.2,18.1 Z  '/></g>
<g fill="none" color="black" stroke="currentColor" stroke-width="1.00" stroke-linecap="butt" stroke-linejoin="miter">
</g>
</g>
</svg>
